images/29637.svg

<?xml version="1.0" encoding="UTF-8"?>
<svg xmlns="http://www.w3.org/2000/svg" xmlns:xlink="http://www.w3.org/1999/xlink" width="300pt" height="300pt" viewBox="0 0 300 300" version="1.1">
<defs>
<g>
<symbol overflow="visible" id="glyph0-0">
<path style="stroke:none;" d="M 0.546875 1.9375 L 0.546875 -7.75 L 6.046875 -7.75 L 6.046875 1.9375 Z M 1.171875 1.328125 L 5.4375 1.328125 L 5.4375 -7.140625 L 1.171875 -7.140625 Z M 1.171875 1.328125 "/>
</symbol>
<symbol overflow="visible" id="glyph0-1">
<path style="stroke:none;" d="M 1.078125 -8.015625 L 5.6875 -8.015625 L 5.6875 -7.109375 L 2.171875 -7.109375 L 2.171875 -4.75 L 5.34375 -4.75 L 5.34375 -3.828125 L 2.171875 -3.828125 L 2.171875 0 L 1.078125 0 Z M 1.078125 -8.015625 "/>
</symbol>
<symbol overflow="visible" id="glyph0-2">
<path style="stroke:none;" d="M 1.078125 -8.015625 L 2.546875 -8.015625 L 6.09375 -1.3125 L 6.09375 -8.015625 L 7.15625 -8.015625 L 7.15625 0 L 5.6875 0 L 2.125 -6.703125 L 2.125 0 L 1.078125 0 Z M 1.078125 -8.015625 "/>
</symbol>
<symbol overflow="visible" id="glyph0-3">
<path style="stroke:none;" d="M 4.328125 -7.28125 C 3.546875 -7.28125 2.921875 -6.984375 2.453125 -6.390625 C 1.992188 -5.804688 1.765625 -5.007812 1.765625 -4 C 1.765625 -2.988281 1.992188 -2.1875 2.453125 -1.59375 C 2.921875 -1.007812 3.546875 -0.71875 4.328125 -0.71875 C 5.117188 -0.71875 5.742188 -1.007812 6.203125 -1.59375 C 6.660156 -2.1875 6.890625 -2.988281 6.890625 -4 C 6.890625 -5.007812 6.660156 -5.804688 6.203125 -6.390625 C 5.742188 -6.984375 5.117188 -7.28125 4.328125 -7.28125 Z M 4.328125 -8.171875 C 5.453125 -8.171875 6.351562 -7.789062 7.03125 -7.03125 C 7.707031 -6.28125 8.046875 -5.269531 8.046875 -4 C 8.046875 -2.738281 7.707031 -1.726562 7.03125 -0.96875 C 6.351562 -0.21875 5.453125 0.15625 4.328125 0.15625 C 3.203125 0.15625 2.300781 -0.21875 1.625 -0.96875 C 0.957031 -1.71875 0.625 -2.726562 0.625 -4 C 0.625 -5.269531 0.957031 -6.28125 1.625 -7.03125 C 2.300781 -7.789062 3.203125 -8.171875 4.328125 -8.171875 Z M 4.328125 -8.171875 "/>
</symbol>
</g>
</defs>
<g id="surface26101">
<rect x="0" y="0" width="300" height="300" style="fill:rgb(100%,100%,100%);fill-opacity:1;stroke:none;"/>
<path style="fill:none;stroke-width:1.2;stroke-linecap:butt;stroke-linejoin:miter;stroke:rgb(20%,80%,80%);stroke-opacity:1;stroke-miterlimit:10;" d="M 41.558594 121.171875 L 47.867188 133.917969 "/>
<path style="fill:none;stroke-width:1.2;stroke-linecap:butt;stroke-linejoin:miter;stroke:rgb(0%,0%,0%);stroke-opacity:1;stroke-miterlimit:10;" d="M 47.867188 133.917969 L 54.175781 146.664062 "/>
<path style=" stroke:none;fill-rule:nonzero;fill:rgb(100%,100%,100%);fill-opacity:1;" d="M 34.558594 114.671875 L 41.558594 114.671875 L 41.558594 127.671875 L 34.558594 127.671875 Z M 34.558594 114.671875 "/>
<g style="fill:rgb(20%,80%,80%);fill-opacity:1;">
  <use xlink:href="#glyph0-1" x="34.558594" y="124.573242"/>
</g>
<path style="fill:none;stroke-width:1.2;stroke-linecap:butt;stroke-linejoin:miter;stroke:rgb(0%,0%,0%);stroke-opacity:1;stroke-miterlimit:10;" d="M 54.175781 146.664062 L 38.40625 170.332031 "/>
<path style="fill:none;stroke-width:1.2;stroke-linecap:butt;stroke-linejoin:miter;stroke:rgb(0%,0%,0%);stroke-opacity:1;stroke-miterlimit:10;" d="M 58.167969 152.742188 L 45.550781 171.675781 "/>
<path style="fill:none;stroke-width:1.2;stroke-linecap:butt;stroke-linejoin:miter;stroke:rgb(0%,0%,0%);stroke-opacity:1;stroke-miterlimit:10;" d="M 82.558594 148.484375 L 54.175781 146.664062 "/>
<path style="fill:none;stroke-width:1.2;stroke-linecap:butt;stroke-linejoin:miter;stroke:rgb(0%,0%,0%);stroke-opacity:1;stroke-miterlimit:10;" d="M 38.40625 170.332031 L 51.019531 195.828125 "/>
<path style="fill:none;stroke-width:1.2;stroke-linecap:butt;stroke-linejoin:miter;stroke:rgb(0%,0%,0%);stroke-opacity:1;stroke-miterlimit:10;" d="M 51.019531 195.828125 L 43.136719 207.660156 "/>
<path style="fill:none;stroke-width:1.2;stroke-linecap:butt;stroke-linejoin:miter;stroke:rgb(20%,80%,80%);stroke-opacity:1;stroke-miterlimit:10;" d="M 43.136719 207.660156 L 35.25 219.496094 "/>
<path style="fill:none;stroke-width:1.2;stroke-linecap:butt;stroke-linejoin:miter;stroke:rgb(0%,0%,0%);stroke-opacity:1;stroke-miterlimit:10;" d="M 51.019531 195.828125 L 79.402344 197.648438 "/>
<path style="fill:none;stroke-width:1.2;stroke-linecap:butt;stroke-linejoin:miter;stroke:rgb(0%,0%,0%);stroke-opacity:1;stroke-miterlimit:10;" d="M 54.285156 189.328125 L 76.996094 190.785156 "/>
<path style=" stroke:none;fill-rule:nonzero;fill:rgb(100%,100%,100%);fill-opacity:1;" d="M 28.25 212.996094 L 35.25 212.996094 L 35.25 225.996094 L 28.25 225.996094 Z M 28.25 212.996094 "/>
<g style="fill:rgb(20%,80%,80%);fill-opacity:1;">
  <use xlink:href="#glyph0-1" x="28.25" y="222.897461"/>
</g>
<path style="fill:none;stroke-width:1.2;stroke-linecap:butt;stroke-linejoin:miter;stroke:rgb(0%,0%,0%);stroke-opacity:1;stroke-miterlimit:10;" d="M 79.402344 197.648438 L 95.171875 173.976562 "/>
<path style="fill:none;stroke-width:1.2;stroke-linecap:butt;stroke-linejoin:miter;stroke:rgb(0%,0%,0%);stroke-opacity:1;stroke-miterlimit:10;" d="M 95.171875 173.976562 L 108.722656 178.292969 "/>
<path style="fill:none;stroke-width:1.2;stroke-linecap:butt;stroke-linejoin:miter;stroke:rgb(20%,80%,80%);stroke-opacity:1;stroke-miterlimit:10;" d="M 108.722656 178.292969 L 122.273438 182.613281 "/>
<path style="fill:none;stroke-width:1.2;stroke-linecap:butt;stroke-linejoin:miter;stroke:rgb(0%,0%,0%);stroke-opacity:1;stroke-miterlimit:10;" d="M 95.171875 173.976562 L 82.558594 148.484375 "/>
<path style="fill:none;stroke-width:1.2;stroke-linecap:butt;stroke-linejoin:miter;stroke:rgb(0%,0%,0%);stroke-opacity:1;stroke-miterlimit:10;" d="M 87.914062 174.394531 L 77.824219 154 "/>
<path style=" stroke:none;fill-rule:nonzero;fill:rgb(100%,100%,100%);fill-opacity:1;" d="M 119.273438 176.113281 L 126.273438 176.113281 L 126.273438 189.113281 L 119.273438 189.113281 Z M 119.273438 176.113281 "/>
<g style="fill:rgb(20%,80%,80%);fill-opacity:1;">
  <use xlink:href="#glyph0-1" x="119.273438" y="186.014648"/>
</g>
<path style="fill:none;stroke-width:1.2;stroke-linecap:butt;stroke-linejoin:miter;stroke:rgb(0%,0%,0%);stroke-opacity:1;stroke-miterlimit:10;" d="M 82.558594 148.484375 L 98.328125 124.8125 "/>
<path style="fill:none;stroke-width:1.2;stroke-linecap:butt;stroke-linejoin:miter;stroke:rgb(0%,0%,0%);stroke-opacity:1;stroke-miterlimit:10;" d="M 98.328125 124.8125 L 93.386719 111.476562 "/>
<path style="fill:none;stroke-width:1.2;stroke-linecap:butt;stroke-linejoin:miter;stroke:rgb(0%,0%,100%);stroke-opacity:1;stroke-miterlimit:10;" d="M 93.386719 111.476562 L 88.449219 98.140625 "/>
<path style="fill:none;stroke-width:1.2;stroke-linecap:butt;stroke-linejoin:miter;stroke:rgb(0%,0%,0%);stroke-opacity:1;stroke-miterlimit:10;" d="M 126.746094 123.65625 L 98.328125 124.8125 "/>
<path style="fill:none;stroke-width:1.2;stroke-linecap:butt;stroke-linejoin:miter;stroke:rgb(0%,0%,0%);stroke-opacity:1;stroke-miterlimit:10;" d="M 123.632812 117.085938 L 100.898438 118.011719 "/>
<path style="fill:none;stroke-width:1.2;stroke-linecap:butt;stroke-linejoin:miter;stroke:rgb(0%,0%,100%);stroke-opacity:1;stroke-miterlimit:10;" d="M 88.449219 98.140625 L 99.605469 89.324219 "/>
<path style="fill:none;stroke-width:1.2;stroke-linecap:butt;stroke-linejoin:miter;stroke:rgb(0%,0%,0%);stroke-opacity:1;stroke-miterlimit:10;" d="M 99.605469 89.324219 L 110.761719 80.503906 "/>
<path style="fill:none;stroke-width:1.2;stroke-linecap:butt;stroke-linejoin:miter;stroke:rgb(0%,0%,100%);stroke-opacity:1;stroke-miterlimit:10;" d="M 94.828125 101.628906 L 103.753906 94.574219 "/>
<path style="fill:none;stroke-width:1.2;stroke-linecap:butt;stroke-linejoin:miter;stroke:rgb(0%,0%,0%);stroke-opacity:1;stroke-miterlimit:10;" d="M 103.753906 94.574219 L 112.679688 87.515625 "/>
<path style=" stroke:none;fill-rule:nonzero;fill:rgb(100%,100%,100%);fill-opacity:1;" d="M 84.449219 91.640625 L 92.449219 91.640625 L 92.449219 104.640625 L 84.449219 104.640625 Z M 84.449219 91.640625 "/>
<g style="fill:rgb(0%,0%,100%);fill-opacity:1;">
  <use xlink:href="#glyph0-2" x="84.449219" y="101.541992"/>
</g>
<path style="fill:none;stroke-width:1.2;stroke-linecap:butt;stroke-linejoin:miter;stroke:rgb(0%,0%,0%);stroke-opacity:1;stroke-miterlimit:10;" d="M 110.761719 80.503906 L 122.597656 88.386719 "/>
<path style="fill:none;stroke-width:1.2;stroke-linecap:butt;stroke-linejoin:miter;stroke:rgb(100%,0%,0%);stroke-opacity:1;stroke-miterlimit:10;" d="M 122.597656 88.386719 L 134.429688 96.273438 "/>
<path style="fill:none;stroke-width:1.2;stroke-linecap:butt;stroke-linejoin:miter;stroke:rgb(100%,0%,0%);stroke-opacity:1;stroke-miterlimit:10;" d="M 134.429688 96.273438 L 130.589844 109.964844 "/>
<path style="fill:none;stroke-width:1.2;stroke-linecap:butt;stroke-linejoin:miter;stroke:rgb(0%,0%,0%);stroke-opacity:1;stroke-miterlimit:10;" d="M 130.589844 109.964844 L 126.746094 123.65625 "/>
<path style=" stroke:none;fill-rule:nonzero;fill:rgb(100%,100%,100%);fill-opacity:1;" d="M 130.429688 89.773438 L 139.429688 89.773438 L 139.429688 102.773438 L 130.429688 102.773438 Z M 130.429688 89.773438 "/>
<g style="fill:rgb(100%,0%,0%);fill-opacity:1;">
  <use xlink:href="#glyph0-3" x="130.429688" y="99.674805"/>
</g>
<path style="fill:none;stroke-width:1.2;stroke-linecap:butt;stroke-linejoin:miter;stroke:rgb(0%,0%,0%);stroke-opacity:1;stroke-miterlimit:10;" d="M 126.746094 123.65625 L 144.386719 145.96875 "/>
<path style="fill:none;stroke-width:1.2;stroke-linecap:butt;stroke-linejoin:miter;stroke:rgb(0%,0%,0%);stroke-opacity:1;stroke-miterlimit:10;" d="M 144.386719 145.96875 L 133.882812 172.402344 "/>
<path style="fill:none;stroke-width:1.2;stroke-linecap:butt;stroke-linejoin:miter;stroke:rgb(0%,0%,0%);stroke-opacity:1;stroke-miterlimit:10;" d="M 144.386719 145.96875 L 172.53125 141.851562 "/>
<path style="fill:none;stroke-width:1.2;stroke-linecap:butt;stroke-linejoin:miter;stroke:rgb(0%,0%,0%);stroke-opacity:1;stroke-miterlimit:10;" d="M 148.171875 152.179688 L 170.683594 148.882812 "/>
<path style="fill:none;stroke-width:1.2;stroke-linecap:butt;stroke-linejoin:miter;stroke:rgb(0%,0%,0%);stroke-opacity:1;stroke-miterlimit:10;" d="M 133.882812 172.402344 L 151.523438 194.714844 "/>
<path style="fill:none;stroke-width:1.2;stroke-linecap:butt;stroke-linejoin:miter;stroke:rgb(0%,0%,0%);stroke-opacity:1;stroke-miterlimit:10;" d="M 140.898438 170.484375 L 155.007812 188.332031 "/>
<path style="fill:none;stroke-width:1.2;stroke-linecap:butt;stroke-linejoin:miter;stroke:rgb(0%,0%,0%);stroke-opacity:1;stroke-miterlimit:10;" d="M 151.523438 194.714844 L 179.664062 190.597656 "/>
<path style="fill:none;stroke-width:1.2;stroke-linecap:butt;stroke-linejoin:miter;stroke:rgb(0%,0%,0%);stroke-opacity:1;stroke-miterlimit:10;" d="M 179.664062 190.597656 L 184.917969 177.378906 "/>
<path style="fill:none;stroke-width:1.2;stroke-linecap:butt;stroke-linejoin:miter;stroke:rgb(0%,0%,100%);stroke-opacity:1;stroke-miterlimit:10;" d="M 184.917969 177.378906 L 190.167969 164.164062 "/>
<path style="fill:none;stroke-width:1.2;stroke-linecap:butt;stroke-linejoin:miter;stroke:rgb(0%,0%,100%);stroke-opacity:1;stroke-miterlimit:10;" d="M 201.558594 208.753906 L 190.613281 199.675781 "/>
<path style="fill:none;stroke-width:1.2;stroke-linecap:butt;stroke-linejoin:miter;stroke:rgb(0%,0%,0%);stroke-opacity:1;stroke-miterlimit:10;" d="M 190.613281 199.675781 L 179.664062 190.597656 "/>
<path style="fill:none;stroke-width:1.2;stroke-linecap:butt;stroke-linejoin:miter;stroke:rgb(0%,0%,100%);stroke-opacity:1;stroke-miterlimit:10;" d="M 203.640625 201.785156 L 194.882812 194.523438 "/>
<path style="fill:none;stroke-width:1.2;stroke-linecap:butt;stroke-linejoin:miter;stroke:rgb(0%,0%,0%);stroke-opacity:1;stroke-miterlimit:10;" d="M 194.882812 194.523438 L 186.128906 187.261719 "/>
<path style="fill:none;stroke-width:1.2;stroke-linecap:butt;stroke-linejoin:miter;stroke:rgb(0%,0%,100%);stroke-opacity:1;stroke-miterlimit:10;" d="M 190.167969 164.164062 L 181.351562 153.007812 "/>
<path style="fill:none;stroke-width:1.2;stroke-linecap:butt;stroke-linejoin:miter;stroke:rgb(0%,0%,0%);stroke-opacity:1;stroke-miterlimit:10;" d="M 181.351562 153.007812 L 172.53125 141.851562 "/>
<path style="fill:none;stroke-width:1.2;stroke-linecap:butt;stroke-linejoin:miter;stroke:rgb(0%,0%,100%);stroke-opacity:1;stroke-miterlimit:10;" d="M 190.167969 164.164062 L 204.363281 165.074219 "/>
<path style="fill:none;stroke-width:1.2;stroke-linecap:butt;stroke-linejoin:miter;stroke:rgb(0%,0%,0%);stroke-opacity:1;stroke-miterlimit:10;" d="M 204.363281 165.074219 L 218.554688 165.984375 "/>
<path style=" stroke:none;fill-rule:nonzero;fill:rgb(100%,100%,100%);fill-opacity:1;" d="M 186.167969 157.664062 L 194.167969 157.664062 L 194.167969 170.664062 L 186.167969 170.664062 Z M 186.167969 157.664062 "/>
<g style="fill:rgb(0%,0%,100%);fill-opacity:1;">
  <use xlink:href="#glyph0-2" x="186.167969" y="167.56543"/>
</g>
<path style="fill:none;stroke-width:1.2;stroke-linecap:butt;stroke-linejoin:miter;stroke:rgb(0%,0%,0%);stroke-opacity:1;stroke-miterlimit:10;" d="M 218.554688 165.984375 L 222.074219 179.765625 "/>
<path style="fill:none;stroke-width:1.2;stroke-linecap:butt;stroke-linejoin:miter;stroke:rgb(0%,0%,100%);stroke-opacity:1;stroke-miterlimit:10;" d="M 222.074219 179.765625 L 225.59375 193.542969 "/>
<path style="fill:none;stroke-width:1.2;stroke-linecap:butt;stroke-linejoin:miter;stroke:rgb(0%,0%,0%);stroke-opacity:1;stroke-miterlimit:10;" d="M 212.773438 170.398438 L 215.589844 181.421875 "/>
<path style="fill:none;stroke-width:1.2;stroke-linecap:butt;stroke-linejoin:miter;stroke:rgb(0%,0%,100%);stroke-opacity:1;stroke-miterlimit:10;" d="M 215.589844 181.421875 L 218.40625 192.441406 "/>
<path style="fill:none;stroke-width:1.2;stroke-linecap:butt;stroke-linejoin:miter;stroke:rgb(0%,0%,0%);stroke-opacity:1;stroke-miterlimit:10;" d="M 218.554688 165.984375 L 236.710938 144.09375 "/>
<path style="fill:none;stroke-width:1.2;stroke-linecap:butt;stroke-linejoin:miter;stroke:rgb(0%,0%,100%);stroke-opacity:1;stroke-miterlimit:10;" d="M 225.59375 193.542969 L 201.558594 208.753906 "/>
<path style=" stroke:none;fill-rule:nonzero;fill:rgb(100%,100%,100%);fill-opacity:1;" d="M 221.59375 187.042969 L 229.59375 187.042969 L 229.59375 200.042969 L 221.59375 200.042969 Z M 221.59375 187.042969 "/>
<g style="fill:rgb(0%,0%,100%);fill-opacity:1;">
  <use xlink:href="#glyph0-2" x="221.59375" y="196.944336"/>
</g>
<path style=" stroke:none;fill-rule:nonzero;fill:rgb(100%,100%,100%);fill-opacity:1;" d="M 197.558594 202.253906 L 205.558594 202.253906 L 205.558594 215.253906 L 197.558594 215.253906 Z M 197.558594 202.253906 "/>
<g style="fill:rgb(0%,0%,100%);fill-opacity:1;">
  <use xlink:href="#glyph0-2" x="197.558594" y="212.155273"/>
</g>
<path style="fill:none;stroke-width:1.2;stroke-linecap:butt;stroke-linejoin:miter;stroke:rgb(0%,0%,0%);stroke-opacity:1;stroke-miterlimit:10;" d="M 236.710938 144.09375 L 264.75 148.871094 "/>
<path style="fill:none;stroke-width:1.2;stroke-linecap:butt;stroke-linejoin:miter;stroke:rgb(0%,0%,0%);stroke-opacity:1;stroke-miterlimit:10;" d="M 236.710938 144.09375 L 226.832031 117.421875 "/>
</g>
</svg>

<svg xmlns="http://www.w3.org/2000/svg" xmlns:xlink="http://www.w3.org/1999/xlink" width="300pt" height="300pt" viewBox="0 0 300 300"><defs><symbol overflow="visible"><path d="M.547 1.938V-7.75h5.5v9.688zm.625-.61h4.266v-8.47H1.171zm0 0"/></symbol><symbol overflow="visible" id="a"><path d="M1.078-8.016h4.61v.907H2.171v2.36h3.172v.922H2.172V0H1.078zm0 0"/></symbol><symbol overflow="visible" id="b"><path d="M1.078-8.016h1.47l3.546 6.704v-6.704h1.062V0H5.688L2.124-6.703V0H1.078zm0 0"/></symbol><symbol overflow="visible" id="c"><path d="M4.328-7.28c-.78 0-1.406.296-1.875.89-.46.585-.687 1.382-.687 2.39 0 1.012.226 1.813.687 2.406.47.586 1.094.875 1.875.875.79 0 1.414-.288 1.875-.874.457-.593.688-1.394.688-2.406 0-1.008-.23-1.805-.687-2.39-.46-.594-1.086-.89-1.875-.89zm0-.892c1.125 0 2.024.383 2.703 1.14C7.708-6.28 8.048-5.27 8.048-4c0 1.262-.34 2.273-1.016 3.03C6.353-.22 5.454.157 4.33.157S2.3-.22 1.625-.97c-.668-.75-1-1.757-1-3.03 0-1.27.332-2.28 1-3.03.676-.76 1.578-1.142 2.703-1.142zm0 0"/></symbol></defs><g><path fill="#fff" d="M0 0h300v300H0z"/><path d="M41.56 121.172l6.307 12.746" stroke-width="1.2" stroke="#3cc" stroke-miterlimit="10" fill="none"/><path d="M47.867 133.918l6.31 12.746" stroke-width="1.2" stroke="#000" stroke-miterlimit="10" fill="none"/><path d="M34.56 114.672h7v13h-7zm0 0" fill="#fff"/><use xlink:href="#a" x="34.559" y="124.573" fill="#3cc"/><path d="M54.176 146.664l-15.77 23.668M58.168 152.742L45.55 171.676M82.56 148.484l-28.384-1.82M38.406 170.332l12.614 25.496M51.02 195.828l-7.883 11.832" stroke-width="1.2" stroke="#000" stroke-miterlimit="10" fill="none"/><path d="M43.137 207.66l-7.887 11.836" stroke-width="1.2" stroke="#3cc" stroke-miterlimit="10" fill="none"/><path d="M51.02 195.828l28.382 1.82M54.285 189.328l22.71 1.457" stroke-width="1.2" stroke="#000" stroke-miterlimit="10" fill="none"/><path d="M28.25 212.996h7v13h-7zm0 0" fill="#fff"/><use xlink:href="#a" x="28.25" y="222.897" fill="#3cc"/><path d="M79.402 197.648l15.77-23.67M95.172 173.977l13.55 4.316" stroke-width="1.2" stroke="#000" stroke-miterlimit="10" fill="none"/><path d="M108.723 178.293l13.55 4.32" stroke-width="1.2" stroke="#3cc" stroke-miterlimit="10" fill="none"/><path d="M95.172 173.977L82.56 148.484M87.914 174.395L77.824 154" stroke-width="1.2" stroke="#000" stroke-miterlimit="10" fill="none"/><path d="M119.273 176.113h7v13h-7zm0 0" fill="#fff"/><use xlink:href="#a" x="119.273" y="186.015" fill="#3cc"/><path d="M82.56 148.484l15.768-23.672M98.328 124.813l-4.94-13.336" stroke-width="1.2" stroke="#000" stroke-miterlimit="10" fill="none"/><path d="M93.387 111.477L88.45 98.14" stroke-width="1.2" stroke="#00f" stroke-miterlimit="10" fill="none"/><path d="M126.746 123.656l-28.418 1.156M123.633 117.086l-22.735.926" stroke-width="1.2" stroke="#000" stroke-miterlimit="10" fill="none"/><path d="M88.45 98.14l11.155-8.816" stroke-width="1.2" stroke="#00f" stroke-miterlimit="10" fill="none"/><path d="M99.605 89.324l11.157-8.82" stroke-width="1.2" stroke="#000" stroke-miterlimit="10" fill="none"/><path d="M94.828 101.63l8.926-7.056" stroke-width="1.2" stroke="#00f" stroke-miterlimit="10" fill="none"/><path d="M103.754 94.574l8.926-7.058" stroke-width="1.2" stroke="#000" stroke-miterlimit="10" fill="none"/><path d="M84.45 91.64h8v13h-8zm0 0" fill="#fff"/><use xlink:href="#b" x="84.449" y="101.542" fill="#00f"/><path d="M110.762 80.504l11.836 7.883" stroke-width="1.2" stroke="#000" stroke-miterlimit="10" fill="none"/><path d="M122.598 88.387l11.832 7.886M134.43 96.273l-3.84 13.692" stroke-width="1.2" stroke="#f00" stroke-miterlimit="10" fill="none"/><path d="M130.59 109.965l-3.844 13.69" stroke-width="1.2" stroke="#000" stroke-miterlimit="10" fill="none"/><path d="M130.43 89.773h9v13h-9zm0 0" fill="#fff"/><use xlink:href="#c" x="130.43" y="99.675" fill="#f00"/><path d="M126.746 123.656l17.64 22.313M144.387 145.97L133.883 172.4M144.387 145.97l28.144-4.118M148.172 152.18l22.512-3.297M133.883 172.402l17.64 22.313M140.898 170.484l14.11 17.848M151.523 194.715l28.14-4.117M179.664 190.598l5.254-13.22" stroke-width="1.2" stroke="#000" stroke-miterlimit="10" fill="none"/><path d="M184.918 177.38l5.25-13.216M201.56 208.754l-10.947-9.078" stroke-width="1.2" stroke="#00f" stroke-miterlimit="10" fill="none"/><path d="M190.613 199.676l-10.95-9.078" stroke-width="1.2" stroke="#000" stroke-miterlimit="10" fill="none"/><path d="M203.64 201.785l-8.757-7.262" stroke-width="1.2" stroke="#00f" stroke-miterlimit="10" fill="none"/><path d="M194.883 194.523l-8.754-7.26" stroke-width="1.2" stroke="#000" stroke-miterlimit="10" fill="none"/><path d="M190.168 164.164l-8.816-11.156" stroke-width="1.2" stroke="#00f" stroke-miterlimit="10" fill="none"/><path d="M181.352 153.008l-8.82-11.156" stroke-width="1.2" stroke="#000" stroke-miterlimit="10" fill="none"/><path d="M190.168 164.164l14.195.91" stroke-width="1.2" stroke="#00f" stroke-miterlimit="10" fill="none"/><path d="M204.363 165.074l14.192.91" stroke-width="1.2" stroke="#000" stroke-miterlimit="10" fill="none"/><path d="M186.168 157.664h8v13h-8zm0 0" fill="#fff"/><use xlink:href="#b" x="186.168" y="167.565" fill="#00f"/><path d="M218.555 165.984l3.52 13.782" stroke-width="1.2" stroke="#000" stroke-miterlimit="10" fill="none"/><path d="M222.074 179.766l3.52 13.777" stroke-width="1.2" stroke="#00f" stroke-miterlimit="10" fill="none"/><path d="M212.773 170.398l2.817 11.024" stroke-width="1.2" stroke="#000" stroke-miterlimit="10" fill="none"/><path d="M215.59 181.422l2.816 11.02" stroke-width="1.2" stroke="#00f" stroke-miterlimit="10" fill="none"/><path d="M218.555 165.984l18.156-21.89" stroke-width="1.2" stroke="#000" stroke-miterlimit="10" fill="none"/><path d="M225.594 193.543l-24.035 15.21" stroke-width="1.2" stroke="#00f" stroke-miterlimit="10" fill="none"/><path d="M221.594 187.043h8v13h-8zm0 0" fill="#fff"/><use xlink:href="#b" x="221.594" y="196.944" fill="#00f"/><path d="M197.56 202.254h8v13h-8zm0 0" fill="#fff"/><use xlink:href="#b" x="197.559" y="212.155" fill="#00f"/><path d="M236.71 144.094l28.04 4.777M236.71 144.094l-9.878-26.672" stroke-width="1.2" stroke="#000" stroke-miterlimit="10" fill="none"/></g></svg>
